X: 2 % start of header
T:Torus:Taurus Tune
T:36 of 100,000,000,000,000
C: (Sid.)
O: Jeff Minter
R:Procedurally Generated
L: 1/8
K: D % scale: C major
V:1 name="Voice 1"
^D,16    |     |     |     | G,16    |     |     |     | ^D,16    |     |     |     | C,16    |     |     |     | :|
V:2 name="Voice 2"
^F,4    | ^A,4    | ^F,4    | ^D,4    | ^A,4    | D4    | ^A,4    | G,4    | ^F,4    | ^A,4    | ^F,4    | ^D,4    | ^D,4    | G,4    | ^D,4    | C,4    | :|
V:3 name="Voice 3"
A,1^C1A,1^F,1|^C1F1^C1^A,1|A,1^C1A,1^F,1|^F,1^A,1^F,1^D,1|^C1F1^C1^A,1|F1A1F1D1|^C1F1^C1^A,1|^A,1D1^A,1G,1|A,1^C1A,1^F,1|^C1F1^C1^A,1|A,1^C1A,1^F,1|^F,1^A,1^F,1^D,1|^F,1^A,1^F,1^D,1|^A,1D1^A,1G,1|^F,1^A,1^F,1^D,1|^D,1G,1^D,1C,1|:|
